X:1
T:Title
%%score ( 1 2 ) ( 3 4 )
L:1/8
Q:1/4=110
M:4/4
K:A
V:1 treble nm="Grand Piano, Soprano"
V:2 treble 
V:3 bass nm="Choir Pad, Kettlebell, 99.99"
V:4 bass 
V:1
 [CE]4 [DF]2 [CE]2 | [CE]2 [CA]2 [Ec]4 | [^EB]4 [FA]2 [DF]2 | [CE]6 z2 | [CE]4 [DF]2 [B,E]2 | %5
w: By~Alfred~Edward~Redhead~(1855\-1937) * *|||||
 E2 A2 [Ec]4 | c4 B2 A2 | [EB]8 | [CE]4 [=CF]2 [^CE]2 | C2- [C-A]2 [Cc]4 | B4 A2 [DF]2 | [CE]6 z2 | %12
w: |||||||
 E4 F2 [DG]2 | [CA]2 [FB]2 [^Ec]4 | [FB]4 E2 D2 | [CA]8 |] %16
w: ||||
V:2
 x8 | x8 | x8 | x8 | x8 | x8 | ^D8 | x8 | x8 | E2 z2 z4 | D6 z2 | x8 | C6 z2 | x8 | x8 | x8 |] %16
V:3
 [A,,A,]8- | [A,,A,]8 | G,4 A,4- | A,6 z2 | z4 A,2 z2 | A,8 | z4 G,2 z2 | [E,G,]8 | A,4 z4 | %9
 [A,,E,]8 | F,6 z2 | [A,,A,]6 z2 | [A,C]4 [F,A,]2 [^E,B,]2 | [F,A,]2 [D,F,]2 [C,G,]4 | %14
 [D,F,]4 [E,G,]4 | [A,,E,A,]8 |] %16
V:4
 x8 | x8 | D,8 | A,,6 z2 | [A,,A,]4 D,2- [D,G,]2 | C,4 A,,4 | [B,,A,]4 B,,2- [B,,F,]2 | x8 | %8
 A,,4- [A,,-^D,]2 [A,,E,]2 | x8 | A,,6- [A,,G,]2 | x8 | x8 | x8 | x8 | x8 |] %16

